X: 153
T: the Weavers Hornpipe
T: Longways for &c.
%R: triple hornpipe
B: Daniel Wright "Wright's Compleat Collection of Celebrated Country Dances" 1740 p.77
S: http://library.efdss.org/cgi-bin/dancebooks.cgi
Z: 2014 John Chambers <jc:trillian.mit.edu>
N: Repeats modified to match the "Each strain twice" instruction.
M: 3/2
L: 1/8
K: D
% - - - - - - - - - - - - - - - - - - - - - - - - -
|:\
D2F2 A2d2 fga2 | g2 e4 B2 dcBA |\
dABG AFGE FDEF | A,2 D4 F2 E2D2 :|
|:\
BdBF GBGE FAFD | C2 E4 B,2 C2E2 |\
fafc dfdA GFED | A,2 D4 GF E2D2 :|
%%center Each strain twice.
% - - - - - - - - - - - - - - - - - - - - - - - - -
%%begintext align
%% The 1st Cu. lead forward and back again, then
%% lead through the 2d Cu. and cast up in your own
%% places, then cast down again .| the 1st Cu. lead
%% down and up again, then leading thro' the 2d
%% Cu. cast down and up again :| then 1st and 2d
%% Men double figure on the We. side, the 1st
%% Man casting down into the 2d Mans place .|
%% then the two We. do the same on the Mens
%% side, then the 1st Wo. casting down :|
%%endtext
% - - - - - - - - - - - - - - - - - - - - - - - - -
%%sep 2 4 300
